src/static/logos/productboard.svg

<?xml version="1.0" encoding="UTF-8" standalone="no"?>
<svg width="256px" height="171px" viewBox="0 0 256 171" version="1.1" xmlns="http://www.w3.org/2000/svg" xmlns:xlink="http://www.w3.org/1999/xlink" preserveAspectRatio="xMidYMid">
	<g>
		<path d="M0,171 L85.489,171 L86.829,168.328 L86.829,89.92 L85.489,85.979 L0,171 Z" fill="#FEDD77"></path>
		<path d="M85.4892,171 L170.9792,171 L168.5732,165.27 L90.2232,87.349 L85.4892,85.979 L85.4892,171 Z" fill="#FBAE42"></path>
		<path d="M0,0.9576 L85.489,85.9786 L87.664,81.5786 L87.664,4.8396 L85.489,0.9576 L0,0.9576 Z" fill="#51BBE5"></path>
		<path d="M85.4892,0.9576 L85.4892,85.9786 L90.7222,83.5256 L168.2952,7.0636 L170.9792,0.9576 L85.4892,0.9576 Z" fill="#139CD4"></path>
		<path d="M87.5835,84.6054 L85.0215,85.9784 L170.5105,171.0004 L172.1885,167.2164 L172.1885,87.9744 L170.5105,85.9784 L168.6685,84.6054 L87.5835,84.6054 Z" fill="#D13729"></path>
		<path d="M174.1347,83.5254 L170.5107,85.9784 L170.5107,171.0004 L255.9997,85.9784 L252.2647,83.5254 L174.1347,83.5254 Z" fill="#8F2319"></path>
		<path d="M170.5104,0.9576 L85.0214,85.9786 L170.5104,85.9786 L172.1884,81.0236 L172.1884,4.0046 L170.5104,0.9576 Z" fill="#EB5246"></path>
		<path d="M170.5104,0.9576 L170.5104,85.9786 L255.9994,85.9786 L170.5104,0.9576 Z" fill="#AE291D"></path>
	</g>
</svg>

<svg width="256" height="171" xmlns="http://www.w3.org/2000/svg" preserveAspectRatio="xMidYMid"><path d="M0 171h85.489l1.34-2.672V89.92l-1.34-3.941L0 171z" fill="#FEDD77"/><path d="M85.49 171h85.49l-2.407-5.73-78.35-77.921-4.734-1.37V171z" fill="#FBAE42"/><path d="M0 .958l85.489 85.02 2.175-4.4V4.84L85.489.958H0z" fill="#51BBE5"/><path d="M85.49.958v85.02l5.232-2.452 77.573-76.462L170.98.958H85.49z" fill="#139CD4"/><path d="M87.584 84.605l-2.563 1.373L170.512 171l1.678-3.784V87.974l-1.678-1.996-1.843-1.373H87.584z" fill="#D13729"/><path d="M174.135 83.525l-3.624 2.453V171L256 85.978l-3.735-2.453h-78.13z" fill="#8F2319"/><path d="M170.51.958l-85.489 85.02h85.49l1.677-4.954V4.004L170.51.959z" fill="#EB5246"/><path d="M170.51.958v85.02H256L170.51.959z" fill="#AE291D"/></svg>
